storage/app/icons/phosphoricons/thin/file-archive-thin.svg

<svg xmlns="http://www.w3.org/2000/svg" fill="currentColor" viewBox="0 0 256 256"><path d="m210.83 85.17-56-56A4 4 0 0 0 152 28H56a12 12 0 0 0-12 12v176a12 12 0 0 0 12 12h144a12 12 0 0 0 12-12V88a4 4 0 0 0-1.17-2.83M156 41.65 198.34 84H156ZM200 220h-92v-24h12a4 4 0 0 0 0-8h-12v-24h12a4 4 0 0 0 0-8h-12v-24h12a4 4 0 0 0 0-8h-12v-12a4 4 0 0 0-8 0v12H88a4 4 0 0 0 0 8h12v24H88a4 4 0 0 0 0 8h12v24H88a4 4 0 0 0 0 8h12v24H56a4 4 0 0 1-4-4V40a4 4 0 0 1 4-4h92v52a4 4 0 0 0 4 4h52v124a4 4 0 0 1-4 4"/></svg>

<svg xmlns="http://www.w3.org/2000/svg" viewBox="0 0 256 256" fill="currentColor"><path d="M210.83,85.17l-56-56A4,4,0,0,0,152,28H56A12,12,0,0,0,44,40V216a12,12,0,0,0,12,12H200a12,12,0,0,0,12-12V88A4,4,0,0,0,210.83,85.17ZM156,41.65,198.34,84H156ZM200,220H108V196h12a4,4,0,0,0,0-8H108V164h12a4,4,0,0,0,0-8H108V132h12a4,4,0,0,0,0-8H108V112a4,4,0,0,0-8,0v12H88a4,4,0,0,0,0,8h12v24H88a4,4,0,0,0,0,8h12v24H88a4,4,0,0,0,0,8h12v24H56a4,4,0,0,1-4-4V40a4,4,0,0,1,4-4h92V88a4,4,0,0,0,4,4h52V216A4,4,0,0,1,200,220Z"/></svg>
